src/svg/wave-02.svg

<svg width="395" height="249" viewBox="0 0 395 249" fill="none" xmlns="http://www.w3.org/2000/svg">
<path d="M19.5092 144.082C18.9041 146.602 16.392 144.379 15.724 142.727C13.5485 137.346 15.6935 128.286 16.6139 123.328C19.6503 106.974 24.3832 84.9181 37.4483 73.2521C60.0922 53.0332 63.2513 127.327 63.4503 135.458C63.7725 148.616 63.792 162.424 61.2926 175.432C58.5148 189.889 57.5007 165.833 57.5016 165.807C58.8976 127.102 67.8341 83.135 84.4603 48.0231C93.0777 29.8246 117.902 9.09245 133.124 33.5309C140.15 44.8105 141.396 58.978 141.933 71.8922C143.174 101.745 139.411 131.571 139.762 161.421C139.938 176.317 140.576 192.254 145.97 206.367C149.531 215.684 155.804 220.149 160.109 208.663C167.183 189.784 202.291 4.74093 228.571 15.5661C235.25 18.317 236.05 33.1347 236.562 37.958C238.76 58.6443 238.574 79.6852 238.652 100.453C238.74 123.844 238.109 147.243 239.017 170.627C239.768 189.95 240.062 212.079 246.679 230.588C249.616 238.807 251.834 230.217 252.916 226.573C256.948 213.002 260.068 199.178 264.162 185.611C269.458 168.059 275.008 150.342 282.496 133.572C286.04 125.635 294.098 104.686 305.794 104.354C313.671 104.131 320.209 114.21 323.769 119.472C333.057 133.204 339.127 149.179 349.964 161.865C367.808 182.753 375.654 151.34 379.982 137.574" stroke="white" stroke-width="29.2119" stroke-linecap="round"/>
</svg>

<?xml version="1.0" encoding="UTF-8"?>
<svg fill="none" version="1.1" viewBox="0 0 395 249" xmlns="http://www.w3.org/2000/svg">
 <path d="m19.51 144.1c-0.6051 2.52-3.117 0.297-3.785-1.355-2.176-5.381-0.0305-14.44 0.8899-19.4 3.036-16.35 7.769-38.41 20.83-50.08 22.64-20.22 25.8 54.07 26 62.21 0.3222 13.16 0.3417 26.97-2.158 39.97-2.778 14.46-3.792-9.599-3.791-9.625 1.396-38.7 10.33-82.67 26.96-117.8 8.617-18.2 33.44-38.93 48.66-14.49 7.026 11.28 8.272 25.45 8.809 38.36 1.241 29.85-2.522 59.68-2.171 89.53 0.176 14.9 0.814 30.83 6.208 44.95 3.561 9.317 9.834 13.78 14.14 2.296 7.074-18.88 42.18-203.9 68.46-193.1 6.679 2.751 7.479 17.57 7.991 22.39 2.198 20.69 2.012 41.73 2.09 62.5 0.088 23.39-0.543 46.79 0.365 70.17 0.751 19.32 1.045 41.45 7.662 59.96 2.937 8.219 5.155-0.371 6.237-4.015 4.032-13.57 7.152-27.4 11.25-40.96 5.296-17.55 10.85-35.27 18.33-52.04 3.544-7.937 11.6-28.89 23.3-29.22 7.877-0.223 14.42 9.856 17.98 15.12 9.288 13.73 15.36 29.71 26.2 42.39 17.84 20.89 25.69-10.52 30.02-24.29" stroke="#fff" stroke-linecap="round" stroke-width="29.21"/>
</svg>
